X:1
T:The Child and the Shepherd
T:The Child and the Shepherd
T:Frank Sewall
T:Frank Sewall, 1869
T:Public Domain Courtesy of the Cyber Hymnal™
T:Public Domain Courtesy of the Cyber Hymnal™
C:Frank Sewall
Z:Public Domain
Z:Courtesy of the Cyber Hymnal™
%%score 1 ( 2 3 )
L:1/8
Q:1/4=100
M:3/4
K:E
V:1 treble 
V:2 bass 
V:3 bass 
V:1
 ([G,E][A,F]) | [B,G]3 [CA] [B,G][A,F] | ([A,F][G,E]) [G,E]2 [B,G][CA] | %3
w: 1.~O *|tell me, gen- tle|shep- * herd, Gen- tle|
w: 2.~O *|lis- ten, hap- py|child- * ren, Hap- py|
w: 3.~O *|tell me, gen- tle|shep- * herd, Gen- tle|
w: 4.~I *|will~tell you, Christ- ian|child- * ren, Christi- an|
 ([B,G][A,F]) [A,F]2 [CA][DB] | ([DA][B,EG]) [B,EG]2 ([EG][GB]) | [Ge]3 [Bd] [Ac][EG] | %6
w: shep- * herd, gen- tle|shep- * herd, O *|tell me what the|
w: child- * ren, hap- py|child- * ren, While~I *|tell you what the|
w: shep- * herd, gen- tle|shep- * herd, What~the *|great bright host of|
w: child- * ren, Christ- ian|child- * ren, What~the *|great bright host of|
 [Bd]>[Ac] [Ac]2 [DF][EG] | [GB]>[Ac] [GB]2 [DF]2 | [EG]4 ([EG][GB]) | [Ge]3 [Bd] [Ac][EG] | %10
w: an- gels sang In the|ear- ly Christ- mas|morn. O *|tell me what the|
w: an- gels sang In the|ear- ly Christ- mas|morn. “Fear *|ye not, I bring|
w: an- gels sang, All out|in the fields so|still. What~the *|great bright host of|
w: an- gels sang, All out|in the fields so|still: “Glor- *|y in the high-|
 [Bd]>[Ac] !fermata![Ac]2 [DF][EG] | [DB]>[CA] [A,F]2 [B,G]2 | [G,E]4 |] %13
w: an- gels sang In the|ear- ly Christ- mas|morn.|
w: good tid- ings, For to-|day the Lord is|born!”|
w: an- gels sang, All out|in the fields so|still.|
w: est, glor- y! Peace on|earth, to all good-|will!”|
V:2
 z2 | [B,,,B,,]2 [G,,B,,]2 [G,,B,,]2 | [E,,E,]2 [E,G,]2 [E,G,]2 | B,,2 [D,F,]2 [D,F,]2 | %4
 [E,,E,]2 [G,B,]2 [G,B,]2 | G,,2 [G,B,E]2 [G,B,E]2 | A,,2 [A,C]2 [A,C]2 | B,,2 [D,B,]2 [D,B,]2 | %8
 [E,,E,]2 [G,B,]2 [G,B,]2 | G,,2 [G,B,E]2 [G,B,E]2 | A,,2 [A,C]2 [A,C]2 | %11
 B,,2 [B,,D,]2 [B,,,B,,D,]2 | [E,,E,]2 [E,G,]2 |] %13
V:3
 x2 | x6 | x6 | x6 | x6 | x6 | x6 | x6 | x6 | G,,6 | A,,6 | [B,,,B,,]4 x2 | x4 |] %13

